packages/components/icon/src/assets/icons/users-add.svg

<svg width="24" height="24" viewBox="0 0 24 24" fill="none" xmlns="http://www.w3.org/2000/svg">
<path fill-rule="evenodd" clip-rule="evenodd" d="M10.568 2.46484C11.349 2.46484 12.0685 2.65647 12.7266 3.03974C13.3846 3.42301 13.9053 3.94366 14.2886 4.60172C14.6718 5.25979 14.8635 5.9793 14.8635 6.7603C14.8635 7.35328 14.802 7.84139 14.6791 8.22466C14.5561 8.60792 14.35 8.98034 14.0608 9.34191C13.7715 9.70348 13.3159 10.1735 12.694 10.752C11.8697 11.5186 11.3092 12.2453 11.0127 12.9323C10.7162 13.6193 10.568 14.4473 10.568 15.4163C10.568 16.1394 10.6873 16.83 10.926 17.4881C11.1646 18.1461 11.5009 18.7427 11.9347 19.2779C11.9926 19.3936 12.0215 19.4586 12.0215 19.4731C12.0215 19.5888 11.9347 19.6467 11.7612 19.6467H4.36346C3.97296 19.6467 3.6367 19.5057 3.35468 19.2236C3.07265 18.9416 2.93164 18.6053 2.93164 18.2148V14.8739C2.93164 14.2086 3.18474 13.5831 3.69094 12.9974C4.19714 12.4116 4.89858 11.9163 5.79528 11.5113C6.69198 11.1064 7.70436 10.8316 8.83247 10.687C8.06593 10.3398 7.44766 9.81557 6.97761 9.11412C6.50757 8.41267 6.27255 7.62807 6.27255 6.7603C6.27255 5.9793 6.46418 5.25979 6.84745 4.60172C7.23071 3.94366 7.75137 3.42301 8.40943 3.03974C9.06749 2.65647 9.78701 2.46484 10.568 2.46484ZM16.7725 10.1663C17.7271 10.1663 18.6057 10.4013 19.4084 10.8714C20.2111 11.3414 20.8474 11.9778 21.3175 12.7804C21.7875 13.5831 22.0225 14.4617 22.0225 15.4163C22.0225 16.3564 21.7875 17.2314 21.3175 18.0413C20.8474 18.8512 20.2111 19.4912 19.4084 19.9612C18.6057 20.4313 17.7271 20.6663 16.7725 20.6663C15.818 20.6663 14.9394 20.4313 14.1367 19.9612C13.334 19.4912 12.6977 18.8512 12.2276 18.0413C11.7576 17.2314 11.5225 16.3564 11.5225 15.4163C11.5225 14.4617 11.7576 13.5831 12.2276 12.7804C12.6977 11.9778 13.334 11.3414 14.1367 10.8714C14.9394 10.4013 15.818 10.1663 16.7725 10.1663ZM16.7726 11.1208C15.9916 11.1208 15.272 11.3125 14.614 11.6957C13.9559 12.079 13.4353 12.5997 13.052 13.2577C12.6687 13.9158 12.4771 14.6353 12.4771 15.4163C12.4771 16.1973 12.6687 16.9168 13.052 17.5749C13.4353 18.2329 13.9559 18.7536 14.614 19.1368C15.272 19.5201 15.9916 19.7117 16.7726 19.7117C17.5535 19.7117 18.2731 19.5201 18.9311 19.1368C19.5892 18.7536 20.1098 18.2329 20.4931 17.5749C20.8764 16.9168 21.068 16.1973 21.068 15.4163C21.068 14.6353 20.8764 13.9158 20.4931 13.2577C20.1098 12.5997 19.5892 12.079 18.9311 11.6957C18.2731 11.3125 17.5535 11.1208 16.7726 11.1208ZM20.1135 16.3708H17.7271V18.7572H15.818V16.3708H13.4316V14.4617H15.818V12.0754H17.7271V14.4617H20.1135V16.3708Z" fill="currentColor"/>
</svg>

<svg viewBox="0 0 24 24" fill="none" xmlns="http://www.w3.org/2000/svg"><path fill-rule="evenodd" clip-rule="evenodd" d="M10.568 2.465c.781 0 1.5.191 2.159.575a4.26 4.26 0 0 1 1.562 1.562c.383.658.575 1.377.575 2.158 0 .593-.062 1.081-.185 1.465a3.51 3.51 0 0 1-.618 1.117c-.29.361-.745.832-1.367 1.41-.824.767-1.385 1.493-1.681 2.18-.297.687-.445 1.515-.445 2.484 0 .723.12 1.414.358 2.072a6.151 6.151 0 0 0 1.009 1.79c.058.116.086.18.086.195 0 .116-.086.174-.26.174H4.363c-.39 0-.726-.141-1.008-.423a1.377 1.377 0 0 1-.423-1.01v-3.34c0-.665.253-1.29.759-1.877.506-.585 1.208-1.08 2.104-1.486.897-.405 1.91-.68 3.037-.824a4.354 4.354 0 0 1-1.854-1.573 4.134 4.134 0 0 1-.705-2.354c0-.78.191-1.5.574-2.158A4.258 4.258 0 0 1 8.41 3.04a4.213 4.213 0 0 1 2.159-.575Zm6.205 7.701a5.12 5.12 0 0 1 2.635.705 5.254 5.254 0 0 1 1.91 1.91c.47.802.704 1.68.704 2.635a5.14 5.14 0 0 1-.704 2.625 5.228 5.228 0 0 1-1.91 1.92 5.122 5.122 0 0 1-2.636.705 5.122 5.122 0 0 1-2.635-.705 5.228 5.228 0 0 1-1.91-1.92 5.141 5.141 0 0 1-.704-2.625c0-.954.235-1.833.705-2.636a5.254 5.254 0 0 1 1.909-1.909 5.122 5.122 0 0 1 2.636-.705Zm0 .955c-.781 0-1.501.191-2.159.575a4.259 4.259 0 0 0-1.562 1.562 4.213 4.213 0 0 0-.575 2.158c0 .781.192 1.5.575 2.159a4.258 4.258 0 0 0 1.562 1.562 4.212 4.212 0 0 0 2.159.575c.78 0 1.5-.192 2.158-.575a4.258 4.258 0 0 0 1.562-1.562 4.213 4.213 0 0 0 .575-2.159c0-.78-.192-1.5-.575-2.158a4.259 4.259 0 0 0-1.562-1.562 4.213 4.213 0 0 0-2.158-.575Zm3.34 5.25h-2.386v2.386h-1.909v-2.386h-2.386v-1.91h2.386v-2.386h1.91v2.387h2.385v1.909Z" fill="currentColor"/></svg>
